src/main/content/img/small_logo_white.svg

<?xml version="1.0" encoding="UTF-8"?>
<svg width="150px" height="31px" viewBox="0 0 150 31" version="1.1" xmlns="http://www.w3.org/2000/svg" xmlns:xlink="http://www.w3.org/1999/xlink">
    <!-- Generator: Sketch 44.1 (41455) - http://www.bohemiancoding.com/sketch -->
    <title>Logo</title>
    <desc>Created with Sketch.</desc>
    <defs>
        <polygon id="path-1" points="9.17608529 0.176031763 0.0298074192 0.176031763 0.0298074192 23.4449675 9.17608529 23.4449675"></polygon>
        <polygon id="path-3" points="6.09780997 23.2991186 12.0221399 23.2991186 12.0221399 0.0434210847 0.173480088 0.0434210847 0.173480088 23.2991186 6.09780997 23.2991186"></polygon>
    </defs>
    <g id="Page-1" stroke="none" stroke-width="1" fill="none" fill-rule="evenodd">
        <g id="Contribute---V6" transform="translate(-140.000000, -48.000000)">
            <g id="Logo" transform="translate(140.000000, 48.000000)">
                <path d="M6.58238396,20.7250072 C9.07862365,20.7250072 9.56312587,19.7083184 9.56312587,17.6436987 L9.56312587,6.77783703 C9.56312587,4.71268788 9.26873811,3.69599906 6.77197178,3.69599906 L6.48759004,3.69599906 C3.99187698,3.69599906 3.53897273,4.71268788 3.53897273,6.77783703 L3.53897273,17.6436987 C3.53897273,19.7083184 3.83336049,20.7250072 6.33012682,20.7250072 L6.58238396,20.7250072 Z M0,6.80960856 C0,2.52098215 1.93800888,0.837091302 6.48759004,0.837091302 L6.80409639,0.837091302 C11.3536776,0.837091302 13.1020986,2.55275367 13.1020986,6.80960856 L13.1020986,17.7702553 C13.1020986,22.0594112 11.1640897,23.7433021 6.61450856,23.7433021 L6.29800222,23.7433021 C1.74842105,23.7433021 0,22.0594112 0,17.7702553 L0,6.80960856 Z" id="Fill-1" fill="#FFFFFF"></path>
                <path d="M22.7079344,20.8204276 C24.3510289,20.8204276 25.26737,20.1532256 25.26737,18.3104771 L25.26737,12.2426453 C25.26737,10.4316684 24.5090187,9.76446633 22.8664509,9.76446633 L22.5820692,9.76446633 C20.9389747,9.76446633 20.0542315,10.3363538 20.0542315,12.1473307 L20.0542315,18.3740202 C20.0542315,20.1849971 20.8120562,20.8204276 22.4556773,20.8204276 L22.7079344,20.8204276 Z M16.5468567,12.1473307 C16.5468567,7.95348938 19.1689617,7.03211514 22.5820692,7.03211514 L22.8975222,7.03211514 C26.2469071,7.03211514 28.7431468,8.112347 28.7431468,12.2426453 L28.7431468,18.5011063 C28.7431468,22.7902622 25.9941234,23.743408 23.3714918,23.743408 L23.2766979,23.743408 C22.1391709,23.743408 20.6856643,23.5210073 19.9589109,22.9173483 C19.9589109,22.9173483 20.0542315,24.0611232 20.0542315,25.1413551 L20.0542315,29.9065544 C20.0542315,30.4148988 19.8330457,30.5419849 19.3269515,30.5102134 L17.1466915,30.2878127 C16.7048466,30.2560412 16.5468567,30.0336405 16.5468567,29.5888391 L16.5468567,12.1473307 Z" id="Fill-3" fill="#FFFFFF"></path>
                <path d="M35.3785101,13.5132945 C36.0736654,13.7039237 37.4955741,13.8945528 38.5383071,13.8945528 C40.180875,13.8945528 40.6237732,13.2591223 40.6237732,12.0835759 L40.6237732,11.7340891 C40.6237732,10.3679135 40.1182057,9.66893994 38.2218008,9.66893994 L38.0327396,9.66893994 C36.1052634,9.66893994 35.3785101,10.336142 35.3785101,12.1153474 L35.3785101,13.5132945 Z M31.9343312,12.3377481 C31.9343312,8.65225113 33.9566014,7.03190333 38.0643376,7.03190333 L38.4119153,7.03190333 C42.1715471,7.03190333 43.9410335,8.6204796 43.9410335,11.670546 L43.9410335,12.1471189 C43.9410335,15.3555135 42.4559289,16.3722023 38.9485541,16.3722023 C37.8431518,16.3722023 36.5792329,16.2138742 35.3785101,15.9279304 L35.3785101,18.0566227 C35.3785101,20.1853149 36.1052634,20.8202158 38.5699051,20.8202158 C40.4341854,20.8202158 41.5717123,20.5660436 42.7087127,20.2483284 C43.1516109,20.1212423 43.3727967,20.3754145 43.3406721,20.7884443 L43.1826822,22.281706 C43.1194863,22.7582789 42.8983005,22.9171365 42.4559289,23.1077657 C41.8560941,23.3301663 40.0550097,23.6478816 38.1907295,23.6478816 L37.9695437,23.6478816 C34.4305709,23.6478816 31.9343312,22.5676497 31.9343312,18.4055799 L31.9343312,12.3377481 Z" id="Fill-5" fill="#FFFFFF"></path>
                <path d="M46.8482048,8.97023114 C46.8482048,8.49365826 47.0377926,8.27125758 47.4801642,8.08062843 C48.4912993,7.63582707 50.6083633,7.12748267 52.9782112,7.12748267 C56.42239,7.12748267 58.6969172,8.20771453 58.6969172,12.4010264 L58.6969172,22.7267721 C58.6969172,23.203345 58.5389274,23.3622026 58.0654845,23.3622026 L55.8220285,23.3622026 C55.348059,23.3622026 55.1900691,23.203345 55.1900691,22.7267721 L55.1900691,12.4333274 C55.1900691,10.5905789 54.652377,9.85983385 52.7570254,9.85983385 C51.9670761,9.85983385 50.987539,9.95514843 50.3871776,10.2093206 L50.3871776,22.7267721 C50.3871776,23.203345 50.1975897,23.3622026 49.7557448,23.3622026 L47.4801642,23.3622026 C47.0061947,23.3622026 46.8482048,23.203345 46.8482048,22.7267721 L46.8482048,8.97023114 Z" id="Fill-7" fill="#FFFFFF"></path>
                <g id="Group-11" transform="translate(67.409004, 0.107494)">
                    <mask id="mask-2" fill="white">
                        <use xlink:href="#path-1"></use>
                    </mask>
                    <g id="Clip-10"></g>
                    <path d="M0.0298074192,1.11064414 C0.0298074192,0.634071254 0.188323906,0.443442102 0.630695498,0.379899051 L2.90522276,0.189269898 C3.37919233,0.125726847 3.53718218,0.284584475 3.53718218,0.761157356 L3.53718218,18.6479966 C3.53718218,20.8608834 6.45472815,19.9929912 7.71864699,19.9929912 C7.97143075,19.9929912 8.47699829,19.9294482 8.66658611,19.9294482 C9.04576176,19.9294482 9.20375162,20.0247627 9.17215365,20.5331072 L8.98256582,22.6506793 C8.95044122,23.1277817 8.792978,23.2543383 8.3506064,23.3501824 C8.09782264,23.3814244 4.9274929,23.4449675 4.23233754,23.4449675 C1.76822245,23.4449675 0.0298074192,22.7459939 0.0298074192,18.8063247 L0.0298074192,1.11064414 Z" id="Fill-9" fill="#FFFFFF" mask="url(#mask-2)"></path>
                </g>
                <path d="M79.1091011,8.20771453 C79.1091011,7.73114165 79.2986889,7.57228402 79.7099892,7.50874097 L81.9845164,7.31811182 C82.458486,7.25456877 82.6480738,7.44519792 82.6480738,7.9217708 L82.6480738,22.7267721 C82.6480738,23.203345 82.458486,23.3622026 82.0161144,23.3622026 L79.7410605,23.3622026 C79.2670909,23.3622026 79.1091011,23.203345 79.1091011,22.7267721 L79.1091011,8.20771453 Z M78.9511112,1.85340945 C78.9511112,1.37736609 79.1091011,1.21797894 79.5830706,1.21797894 L82.1741042,1.21797894 C82.6480738,1.21797894 82.8060637,1.37736609 82.8060637,1.85340945 L82.8060637,3.85501555 C82.8060637,4.33158843 82.6164758,4.49044606 82.1741042,4.49044606 L79.5830706,4.49044606 C79.1091011,4.49044606 78.9511112,4.33158843 78.9511112,3.85501555 L78.9511112,1.85340945 Z" id="Fill-12" fill="#FFFFFF"></path>
                <path d="M92.4117415,20.8204276 C94.0543093,20.8204276 94.9395791,20.1532256 94.9395791,18.3422487 L94.9395791,12.2108738 C94.9395791,10.3998968 94.1807012,9.76446633 92.5697313,9.76446633 L92.3796169,9.76446633 C90.6422551,9.76446633 89.7575119,10.3998968 89.7575119,12.2108738 L89.7575119,18.4375632 C89.7575119,20.2803117 90.4842653,20.8204276 92.1273597,20.8204276 L92.4117415,20.8204276 Z M86.2501372,1.21792599 C86.2501372,0.70958158 86.4086536,0.551253478 86.8504986,0.487710427 L89.0939545,0.297081275 C89.5679241,0.297081275 89.7575119,0.391866325 89.7575119,0.868968732 L89.7575119,5.69771107 C89.7575119,6.77794294 89.662718,7.92171785 89.662718,7.92171785 C90.3578734,7.41337344 91.4954003,7.03211514 93.0431743,7.03211514 L93.1384948,7.03211514 C95.8237957,7.03211514 98.4464273,7.9852609 98.4464273,12.2744168 L98.4464273,18.5328778 C98.4464273,22.6949476 95.7605997,23.743408 92.4117415,23.743408 L92.1273597,23.743408 C88.619985,23.743408 86.2501372,22.8538053 86.2501372,18.9141361 L86.2501372,1.21792599 Z" id="Fill-14" fill="#FFFFFF"></path>
                <path d="M105.050403,13.5132945 C105.745559,13.7039237 107.167467,13.8945528 108.2102,13.8945528 C109.852768,13.8945528 110.295666,13.2591223 110.295666,12.0835759 L110.295666,11.7340891 C110.295666,10.3679135 109.790099,9.66893994 107.893694,9.66893994 L107.704633,9.66893994 C105.777156,9.66893994 105.050403,10.336142 105.050403,12.1153474 L105.050403,13.5132945 Z M101.606224,12.3377481 C101.606224,8.65225113 103.628494,7.03190333 107.736231,7.03190333 L108.083808,7.03190333 C111.84344,7.03190333 113.612927,8.6204796 113.612927,11.670546 L113.612927,12.1471189 C113.612927,15.3555135 112.127822,16.3722023 108.620447,16.3722023 C107.515045,16.3722023 106.251126,16.2138742 105.050403,15.9279304 L105.050403,18.0566227 C105.050403,20.1853149 105.777156,20.8202158 108.241798,20.8202158 C110.106079,20.8202158 111.243605,20.5660436 112.380606,20.2483284 C112.823504,20.1212423 113.04469,20.3754145 113.012565,20.7884443 L112.854575,22.281706 C112.791379,22.7582789 112.570194,22.9171365 112.127822,23.1077657 C111.527987,23.3301663 109.726903,23.6478816 107.862623,23.6478816 L107.641437,23.6478816 C104.102464,23.6478816 101.606224,22.5676497 101.606224,18.4055799 L101.606224,12.3377481 Z" id="Fill-16" fill="#FFFFFF"></path>
                <path d="M132.845032,20.6297455 C131.202464,20.6297455 130.854886,20.4073449 130.854886,18.8505401 L130.854886,9.98681405 L134.267467,9.98681405 C134.772508,9.98681405 134.899426,9.89149947 134.867302,9.38315507 L134.709312,8.01697947 C134.678241,7.50863507 134.520251,7.41332049 134.046281,7.41332049 L130.854886,7.41332049 L130.854886,3.53719439 C130.854886,3.02884998 130.665298,2.90229341 130.222927,2.93353541 L127.979471,3.15593608 C127.506028,3.18770761 127.379109,3.37886629 127.379109,3.82313812 L127.379109,7.41332049 L127.379109,9.98681405 L127.379109,18.8505401 C127.379109,22.7584377 129.116998,23.5527259 132.276795,23.5527259 C133.256332,23.5527259 133.730301,23.4891828 134.235869,23.3620967 C134.709312,23.2985537 134.83623,23.0126099 134.867302,22.5995801 L135.057416,21.0427754 C135.089014,20.6297455 134.867302,20.5026594 134.520251,20.5026594 C134.077879,20.534431 133.540714,20.6297455 132.845032,20.6297455 Z" id="Fill-18" fill="#FFFFFF"></path>
                <g id="Group-22" transform="translate(137.696419, 7.274850)">
                    <mask id="mask-4" fill="white">
                        <use xlink:href="#path-3"></use>
                    </mask>
                    <g id="Clip-21"></g>
                    <path d="M3.68085485,20.9162542 C3.64873025,20.4079098 3.77564876,20.2490522 4.21802035,20.3125953 C4.47080412,20.3443668 5.70312498,20.4396814 5.98698009,20.4396814 C7.21982758,20.4396814 8.64120964,20.3443668 8.64120964,18.2474461 L8.64120964,15.1661377 C7.94658091,15.8968827 6.55574356,16.0869824 5.5446085,16.0869824 L5.48193919,16.0869824 C2.5112033,16.0869824 0.173480088,15.0067505 0.173480088,10.8769817 L0.173480088,0.933023797 C0.173480088,0.45592139 0.331469942,0.297593288 0.773314901,0.233520712 L3.04889543,0.0434210847 C3.52233836,0.0434210847 3.71245282,0.170507186 3.71245282,0.647080068 L3.71245282,10.6863526 C3.71245282,12.465558 4.2812163,13.164002 6.01857806,13.164002 L6.11337197,13.164002 C7.78806443,13.164002 8.51534439,12.4973295 8.51534439,10.8452102 L8.51534439,0.647080068 C8.51534439,0.170507186 8.70440558,0.0434210847 9.17837514,0.0434210847 L11.4218311,0.233520712 C11.8642027,0.297593288 12.0221925,0.45592139 12.0221925,0.933023797 L12.0221925,18.0885885 C12.0221925,22.473059 9.39956094,23.2991186 6.42987831,23.2991186 C5.51301053,23.2991186 4.65986531,23.1720325 4.34441224,23.1084895 C4.0600305,23.0131749 3.90204065,22.8860888 3.86991604,22.4412875 L3.68085485,20.9162542 Z" id="Fill-20" fill="#FFFFFF" mask="url(#mask-4)"></path>
                </g>
                <path d="M116.425462,12.0201387 C116.425462,8.01692652 118.32134,7.12732381 121.512209,7.12732381 C122.492272,7.12732381 123.345418,7.22263839 123.882056,7.34972449 C124.29283,7.47681059 124.482945,7.66743974 124.514016,8.08046957 L124.640934,9.92321805 C124.672006,10.3362479 124.482945,10.526877 124.072171,10.4315625 C123.218499,10.2727048 122.42855,10.2409333 121.986705,10.2409333 C120.912374,10.2409333 119.964435,10.3680194 119.964435,12.1789964 L119.964435,22.7266133 C119.964435,23.2031861 119.77432,23.3620438 119.332475,23.3620438 L117.057421,23.3620438 C116.583452,23.3620438 116.425462,23.2031861 116.425462,22.7266133 L116.425462,12.0201387 Z" id="Fill-23" fill="#FFFFFF"></path>
            </g>
        </g>
    </g>
</svg>

<svg width="150" height="31" viewBox="0 0 150 31" xmlns="http://www.w3.org/2000/svg" xmlns:xlink="http://www.w3.org/1999/xlink"><title>Logo</title><defs><path id="a" d="M9.176.176H.03v23.269h9.146z"/><path id="c" d="M6.098 23.3h5.924V.042H.173V23.3h5.925z"/></defs><g fill="none" fill-rule="evenodd"><path d="M6.582 20.725c2.497 0 2.981-1.017 2.981-3.081V6.778c0-2.065-.294-3.082-2.791-3.082h-.284c-2.496 0-2.949 1.017-2.949 3.082v10.866c0 2.064.294 3.081 2.791 3.081h.252zM0 6.81C0 2.52 1.938.837 6.488.837h.316c4.55 0 6.298 1.716 6.298 5.973v10.96c0 4.29-1.938 5.973-6.487 5.973h-.317C1.748 23.743 0 22.06 0 17.77V6.81zM22.708 20.82c1.643 0 2.56-.667 2.56-2.51v-6.067c0-1.811-.759-2.479-2.402-2.479h-.284c-1.643 0-2.528.572-2.528 2.383v6.227c0 1.811.758 2.446 2.402 2.446h.252zm-6.161-8.673c0-4.194 2.622-5.115 6.035-5.115h.316c3.349 0 5.845 1.08 5.845 5.21v6.26c0 4.288-2.749 5.241-5.372 5.241h-.094c-1.138 0-2.591-.222-3.318-.826 0 0 .095 1.144.095 2.224v4.766c0 .508-.221.635-.727.603l-2.18-.222c-.442-.032-.6-.254-.6-.7v-17.44zM35.379 13.513c.695.19 2.117.382 3.16.382 1.642 0 2.085-.636 2.085-1.811v-.35c0-1.366-.506-2.065-2.402-2.065h-.19c-1.927 0-2.653.667-2.653 2.446v1.398zm-3.445-1.175c0-3.686 2.023-5.306 6.13-5.306h.348c3.76 0 5.529 1.588 5.529 4.639v.476c0 3.209-1.485 4.225-4.992 4.225-1.106 0-2.37-.158-3.57-.444v2.129c0 2.128.726 2.763 3.19 2.763 1.865 0 3.003-.254 4.14-.572.443-.127.664.127.632.54l-.158 1.494c-.064.476-.285.635-.727.826-.6.222-2.401.54-4.265.54h-.221c-3.54 0-6.036-1.08-6.036-5.242v-6.068zM46.848 8.97c0-.476.19-.699.632-.89 1.011-.444 3.128-.953 5.498-.953 3.444 0 5.719 1.08 5.719 5.274v10.326c0 .476-.158.635-.632.635h-2.243c-.474 0-.632-.159-.632-.635V12.433c0-1.842-.538-2.573-2.433-2.573-.79 0-1.77.095-2.37.35v12.517c0 .476-.19.635-.631.635H47.48c-.474 0-.632-.159-.632-.635V8.97z" fill="#FFF"/><g transform="translate(67.409 .107)"><mask id="b" fill="#fff"><use xlink:href="#a"/></mask><path d="M.03 1.11c0-.476.158-.667.6-.73L2.906.19c.474-.064.632.095.632.571v17.887c0 2.213 2.918 1.345 4.182 1.345.252 0 .758-.064.948-.064.379 0 .537.096.505.604l-.19 2.118c-.032.477-.189.603-.631.7-.253.03-3.424.094-4.119.094-2.464 0-4.202-.699-4.202-4.639V1.111z" fill="#FFF" mask="url(#b)"/></g><path d="M79.11 8.208c0-.477.189-.636.6-.7l2.275-.19c.473-.063.663.127.663.604v14.805c0 .476-.19.635-.632.635h-2.275c-.474 0-.632-.159-.632-.635V8.207zm-.159-6.355c0-.476.158-.635.632-.635h2.591c.474 0 .632.16.632.635v2.002c0 .477-.19.635-.632.635h-2.59c-.475 0-.633-.158-.633-.635V1.853zM92.412 20.82c1.642 0 2.528-.667 2.528-2.478v-6.131c0-1.811-.76-2.447-2.37-2.447h-.19c-1.738 0-2.622.636-2.622 2.447v6.227c0 1.842.726 2.382 2.37 2.382h.284zM86.25 1.218c0-.508.159-.667.6-.73l2.244-.19c.474 0 .664.094.664.571v4.829c0 1.08-.095 2.224-.095 2.224.695-.509 1.832-.89 3.38-.89h.095c2.686 0 5.308.953 5.308 5.242v6.259c0 4.162-2.685 5.21-6.034 5.21h-.285c-3.507 0-5.877-.89-5.877-4.829V1.218zM105.05 13.513c.696.19 2.117.382 3.16.382 1.643 0 2.086-.636 2.086-1.811v-.35c0-1.366-.506-2.065-2.402-2.065h-.19c-1.927 0-2.654.667-2.654 2.446v1.398zm-3.444-1.175c0-3.686 2.022-5.306 6.13-5.306h.348c3.76 0 5.529 1.588 5.529 4.639v.476c0 3.209-1.485 4.225-4.993 4.225-1.105 0-2.369-.158-3.57-.444v2.129c0 2.128.727 2.763 3.192 2.763 1.864 0 3.002-.254 4.139-.572.443-.127.664.127.632.54l-.158 1.494c-.064.476-.285.635-.727.826-.6.222-2.401.54-4.265.54h-.222c-3.539 0-6.035-1.08-6.035-5.242v-6.068zM132.845 20.63c-1.643 0-1.99-.223-1.99-1.78V9.988h3.412c.506 0 .632-.096.6-.604l-.158-1.366c-.03-.508-.189-.604-.663-.604h-3.191V3.537c0-.508-.19-.635-.632-.603l-2.244.222c-.473.032-.6.223-.6.667v15.028c0 3.907 1.738 4.702 4.898 4.702.98 0 1.453-.064 1.959-.19.473-.064.6-.35.631-.763l.19-1.557c.032-.413-.19-.54-.537-.54-.442.031-.98.127-1.675.127z" fill="#FFF"/><g transform="translate(137.696 7.275)"><mask id="d" fill="#fff"><use xlink:href="#c"/></mask><path d="M3.68 20.916c-.031-.508.096-.667.538-.603.253.031 1.485.127 1.769.127 1.233 0 2.654-.096 2.654-2.193v-3.08c-.694.73-2.085.92-3.096.92h-.063c-2.97 0-5.309-1.08-5.309-5.21V.933c0-.477.158-.635.6-.7L3.05.044c.473 0 .663.128.663.604v10.04c0 1.779.57 2.477 2.307 2.477h.094c1.675 0 2.402-.667 2.402-2.319V.647c0-.476.19-.604.663-.604l2.244.19c.442.065.6.223.6.7v17.156c0 4.384-2.622 5.21-5.592 5.21-.917 0-1.77-.127-2.086-.19-.284-.096-.442-.223-.474-.668l-.19-1.525z" fill="#FFF" mask="url(#d)"/></g><path d="M116.425 12.02c0-4.003 1.896-4.893 5.087-4.893.98 0 1.833.096 2.37.223.41.127.6.317.632.73l.127 1.843c.031.413-.158.604-.569.509a11.854 11.854 0 0 0-2.085-.191c-1.075 0-2.023.127-2.023 1.938v10.548c0 .476-.19.635-.632.635h-2.275c-.474 0-.632-.159-.632-.635V12.02z" fill="#FFF"/></g></svg>
